X:1
T:The Wind that Shakes the Barley
M:2/2
R:Reel
K:Dmaj
|: A2AB AFED | B2BA BcdB | AAAB A2de |1 fded BcdB :|2 fded Bcde ||
  f2fd g2ge | f2fd Bcde | f2fd g2fg | afed Bcde |
  f2fd g2ge | f2fd BcdA | defg a2af | gfed BcdB |
